public/logos/WG.svg

<?xml version="1.0" encoding="UTF-8"?>
<svg xmlns="http://www.w3.org/2000/svg" xmlns:xlink="http://www.w3.org/1999/xlink" width="156.38pt" height="59pt" viewBox="0 0 156.38 59" version="1.1">
<defs>
<clipPath id="clip1">
  <path d="M 132 26 L 156.378906 26 L 156.378906 59 L 132 59 Z M 132 26 "/>
</clipPath>
</defs>
<g id="surface1">
<path style=" stroke:none;fill-rule:nonzero;fill:rgb(94.456482%,29.01001%,11.08551%);fill-opacity:1;" d="M 106.417969 0 L 107.160156 0.160156 L 107.390625 0.417969 L 107.324219 1.007812 L 107.222656 5.613281 L 106.96875 5.644531 L 106.253906 3.890625 L 105.992188 2.238281 L 106.089844 0.582031 "/>
<path style=" stroke:none;fill-rule:nonzero;fill:rgb(94.456482%,29.01001%,11.08551%);fill-opacity:1;" d="M 110.730469 9.347656 L 112.902344 7.785156 L 114.070312 7.234375 L 115.210938 6.488281 L 116.277344 6.230469 L 116.570312 7.070312 L 115.691406 7.722656 L 113.746094 9.152344 L 113.128906 9.25 L 112.160156 9.605469 L 111.25 9.765625 "/>
<path style=" stroke:none;fill-rule:nonzero;fill:rgb(94.456482%,29.01001%,11.08551%);fill-opacity:1;" d="M 113.097656 12.554688 L 113.195312 12.007812 L 116.410156 11.714844 L 118.257812 11.679688 L 119.105469 11.9375 L 119.585938 12.132812 L 119.550781 12.6875 L 119.195312 13.042969 L 117.1875 13.078125 L 115.078125 12.945312 L 113.777344 12.75 "/>
<path style=" stroke:none;fill-rule:nonzero;fill:rgb(94.456482%,29.01001%,11.08551%);fill-opacity:1;" d="M 110.082031 16.875 L 110.308594 16.582031 L 110.597656 16.804688 L 110.570312 17.75 L 111.542969 19.664062 L 111.992188 20.929688 L 112.125 21.382812 L 112.15625 23.101562 L 111.703125 23.167969 L 111.019531 22.257812 L 110.570312 22.421875 L 110.242188 22.195312 L 110.210938 20.894531 L 110.015625 20.699219 L 109.953125 17.878906 "/>
<path style=" stroke:none;fill-rule:nonzero;fill:rgb(94.456482%,29.01001%,11.08551%);fill-opacity:1;" d="M 102.589844 18.882812 L 104.308594 16.804688 L 104.890625 16.609375 L 105.3125 16.644531 L 104.855469 18.039062 L 103.855469 20.117188 L 103.105469 20.859375 L 102.617188 20.992188 L 102.425781 20.832031 "/>
<path style=" stroke:none;fill-rule:nonzero;fill:rgb(94.456482%,29.01001%,11.08551%);fill-opacity:1;" d="M 93.210938 16.386719 L 94.609375 15.832031 L 97.234375 15.445312 L 98.664062 15.347656 L 98.953125 15.054688 L 98.953125 15.769531 L 97.757812 16.421875 L 95.09375 17.492188 L 93.507812 17.945312 L 92.789062 17.421875 L 92.824219 16.546875 "/>
<path style=" stroke:none;fill-rule:nonzero;fill:rgb(94.456482%,29.01001%,11.08551%);fill-opacity:1;" d="M 95.515625 7.847656 L 97.820312 7.492188 L 99.894531 8.179688 L 101.617188 9.019531 L 102.035156 9.347656 L 101.875 9.570312 L 99.796875 9.605469 L 97.847656 9.277344 L 96.265625 8.695312 L 95.484375 8.144531 "/>
<path style=" stroke:none;fill-rule:nonzero;fill:rgb(94.456482%,29.01001%,11.08551%);fill-opacity:1;" d="M 105.019531 9.347656 L 107.195312 9.636719 L 107.777344 9.960938 L 108.558594 11.195312 L 108.945312 12.714844 L 108.820312 13.722656 L 107.417969 14.082031 L 105.472656 13.042969 L 104.664062 11.839844 L 104.144531 10.839844 L 104.4375 9.765625 M 103.6875 8.109375 L 102.785156 9.082031 L 102.652344 10.414062 L 102.847656 11.324219 L 104.015625 13.789062 L 104.339844 14.046875 L 104.535156 14.507812 L 105.863281 15.25 L 107.453125 15.285156 L 109.917969 14.992188 L 110.632812 14.40625 L 110.730469 13.984375 L 110.925781 13.332031 L 110.761719 12.332031 L 110.4375 10.546875 L 108.980469 8.859375 L 107.453125 8.046875 L 105.152344 7.757812 L 103.6875 8.109375 "/>
<path style=" stroke:none;fill-rule:nonzero;fill:rgb(94.456482%,29.01001%,11.08551%);fill-opacity:1;" d="M 1.582031 43.769531 C 1.582031 43.769531 5.242188 45.304688 7.367188 45.304688 C 9.175781 45.304688 10.125 44.402344 10.125 43.316406 C 10.125 42.234375 9.398438 41.464844 7.367188 40.472656 C 4.832031 39.203125 2.714844 37.351562 2.714844 34.59375 C 2.714844 29.988281 6.734375 26.960938 12.425781 26.960938 C 15 26.960938 17.035156 27.503906 18.074219 28.09375 L 16.539062 32.703125 C 15.640625 32.292969 14.054688 31.753906 12.113281 31.753906 C 10.398438 31.753906 9.261719 32.472656 9.261719 33.695312 C 9.261719 34.59375 10.167969 35.363281 11.929688 36.179688 C 14.371094 37.394531 16.902344 39.203125 16.902344 42.277344 C 16.902344 47.339844 12.609375 50.097656 6.734375 50.050781 C 3.976562 50.007812 1.3125 49.285156 0 48.335938 L 1.582031 43.769531 "/>
<path style=" stroke:none;fill-rule:nonzero;fill:rgb(94.456482%,29.01001%,11.08551%);fill-opacity:1;" d="M 42.203125 27.457031 L 39.402344 42.367188 C 38.859375 45.167969 38.5 47.566406 38.183594 49.554688 L 32.445312 49.554688 L 32.847656 45.988281 L 32.761719 45.9375 C 30.503906 48.832031 27.835938 50.050781 25.167969 50.050781 C 21.601562 50.050781 19.476562 48.0625 19.476562 43.863281 C 19.476562 42.683594 19.609375 41.328125 19.925781 39.792969 L 22.277344 27.457031 L 28.78125 27.457031 L 26.527344 39.296875 C 26.34375 40.289062 26.210938 41.421875 26.210938 42.234375 C 26.210938 43.632812 26.796875 44.765625 28.421875 44.765625 C 30.636719 44.765625 32.941406 42.097656 33.753906 37.714844 L 35.699219 27.457031 L 42.203125 27.457031 "/>
<path style=" stroke:none;fill-rule:nonzero;fill:rgb(94.456482%,29.01001%,11.08551%);fill-opacity:1;" d="M 42.15625 49.554688 L 44.957031 34.636719 C 45.5 31.84375 45.867188 29.449219 46.132812 27.457031 L 51.875 27.457031 L 51.46875 31.117188 L 51.554688 31.117188 C 53.636719 28.273438 56.394531 26.960938 59.28125 26.960938 C 62.898438 26.960938 64.976562 29.175781 64.976562 33.019531 C 64.976562 34.003906 64.796875 35.636719 64.617188 36.71875 L 62.175781 49.554688 L 55.667969 49.554688 L 57.972656 37.308594 C 58.109375 36.539062 58.199219 35.675781 58.199219 34.867188 C 58.199219 33.285156 57.65625 32.207031 55.984375 32.207031 C 53.859375 32.207031 51.421875 34.867188 50.476562 39.746094 L 48.667969 49.554688 L 42.15625 49.554688 "/>
<path style=" stroke:none;fill-rule:nonzero;fill:rgb(94.456482%,29.01001%,11.08551%);fill-opacity:1;" d="M 74.507812 27.457031 L 74.554688 36.855469 C 74.601562 39.339844 74.511719 41.421875 74.375 43.863281 L 74.464844 43.863281 C 75.230469 41.507812 76.230469 39.296875 77.132812 37.078125 L 81.515625 27.457031 L 86.800781 27.457031 L 87.34375 36.761719 C 87.480469 39.382812 87.570312 41.507812 87.433594 43.863281 L 87.570312 43.863281 C 88.292969 41.421875 89.0625 39.253906 89.960938 36.675781 L 93.757812 27.457031 L 100.3125 27.457031 L 89.558594 49.554688 L 83.460938 49.554688 L 82.824219 41.867188 C 82.644531 39.570312 82.644531 37.445312 82.644531 34.824219 L 82.507812 34.824219 C 81.335938 37.941406 80.835938 39.570312 79.890625 41.558594 L 76.136719 49.554688 L 70.039062 49.554688 L 67.957031 27.457031 L 74.507812 27.457031 "/>
<path style=" stroke:none;fill-rule:nonzero;fill:rgb(94.456482%,29.01001%,11.08551%);fill-opacity:1;" d="M 98.003906 49.554688 L 102.210938 27.457031 L 108.667969 27.457031 L 104.511719 49.554688 L 98.003906 49.554688 "/>
<path style=" stroke:none;fill-rule:nonzero;fill:rgb(94.456482%,29.01001%,11.08551%);fill-opacity:1;" d="M 108.625 49.554688 L 111.425781 34.636719 C 111.964844 31.84375 112.328125 29.449219 112.601562 27.457031 L 118.339844 27.457031 L 117.933594 31.117188 L 118.023438 31.117188 C 120.101562 28.273438 122.855469 26.960938 125.75 26.960938 C 129.363281 26.960938 131.445312 29.175781 131.445312 33.019531 C 131.441406 34.003906 131.261719 35.636719 131.082031 36.71875 L 128.640625 49.554688 L 122.132812 49.554688 L 124.4375 37.308594 C 124.574219 36.539062 124.667969 35.675781 124.667969 34.867188 C 124.667969 33.285156 124.121094 32.207031 122.449219 32.207031 C 120.324219 32.207031 117.886719 34.867188 116.9375 39.746094 L 115.132812 49.554688 L 108.625 49.554688 "/>
<g clip-path="url(#clip1)" clip-rule="nonzero">
<path style=" stroke:none;fill-rule:nonzero;fill:rgb(94.456482%,29.01001%,11.08551%);fill-opacity:1;" d="M 134.152344 52.628906 C 135.375 53.351562 138.039062 53.851562 139.9375 53.851562 C 143.1875 53.851562 145.585938 52.402344 146.535156 47.972656 L 146.894531 46.074219 L 146.808594 46.074219 C 145.089844 48.335938 143.101562 49.375 140.480469 49.375 C 136.09375 49.375 133.429688 45.800781 133.386719 41.464844 C 133.335938 34.191406 138.585938 26.960938 148.207031 26.960938 C 151.324219 26.960938 154.03125 27.546875 156.382812 28.496094 L 153.039062 46.707031 C 152.273438 50.777344 151.007812 54.390625 148.386719 56.515625 C 145.988281 58.417969 142.78125 59 139.847656 59 C 136.863281 59 134.152344 58.460938 132.617188 57.601562 Z M 149.335938 32.34375 C 148.839844 32.113281 147.886719 31.933594 146.988281 31.933594 C 143.054688 31.933594 140.253906 36.316406 140.253906 40.472656 C 140.253906 42.730469 141.25 44.359375 143.234375 44.359375 C 145.359375 44.359375 147.484375 41.960938 148.207031 38.257812 L 149.335938 32.34375 "/>
</g>
</g>
</svg>

<svg xmlns="http://www.w3.org/2000/svg" width="208.507" height="59pt" viewBox="0 0 156.38 59"><defs><clipPath id="a"><path d="M132 26h24.379v33H132Zm0 0"/></clipPath></defs><path d="m106.418 0 .742.16.23.258-.066.59-.101 4.605-.254.032-.715-1.754-.262-1.653.098-1.656M110.73 9.348l2.172-1.563 1.168-.55 1.14-.747 1.067-.258.293.84-.879.653-1.945 1.43-.617.097-.969.355-.91.16M113.098 12.555l.097-.547 3.215-.293 1.848-.035.847.258.48.195-.034.555-.356.355-2.007.035-2.11-.133-1.3-.195M110.082 16.875l.227-.293.289.223-.028.945.973 1.914.45 1.266.132.453.031 1.719-.453.066-.683-.91-.45.164-.328-.227-.031-1.3-.195-.196-.063-2.82M102.59 18.883l1.719-2.078.582-.196.421.036-.457 1.394-1 2.078-.75.742-.488.133-.191-.16M93.21 16.387l1.4-.555 2.624-.387 1.43-.097.29-.293v.715l-1.196.652-2.664 1.07-1.586.453-.719-.523.035-.875M95.516 7.848l2.304-.356 2.075.688 1.722.84.418.328-.16.222-2.078.035-1.95-.328-1.581-.582-.782-.55M105.02 9.348l2.175.289.582.324.782 1.234.386 1.52-.125 1.008-1.402.359-1.945-1.039-.809-1.203-.52-1 .293-1.074m-.75-1.657-.902.973-.133 1.332.196.91 1.168 2.465.324.258.195.46 1.328.743 1.59.035 2.465-.293.715-.586.097-.422.196-.652-.164-1-.325-1.785-1.457-1.688-1.527-.812-2.3-.29zM1.582 43.77s3.66 1.535 5.785 1.535c1.809 0 2.758-.903 2.758-1.989 0-1.082-.727-1.851-2.758-2.843-2.535-1.27-4.652-3.121-4.652-5.88 0-4.605 4.02-7.632 9.71-7.632 2.575 0 4.61.543 5.65 1.133l-1.536 4.61c-.898-.411-2.484-.95-4.426-.95-1.715 0-2.851.719-2.851 1.941 0 .899.906 1.668 2.668 2.485 2.441 1.215 4.972 3.023 4.972 6.097 0 5.063-4.293 7.82-10.168 7.774-2.757-.043-5.421-.766-6.734-1.715zM42.203 27.457l-2.8 14.91c-.544 2.801-.903 5.2-1.22 7.188h-5.738l.403-3.567-.086-.05c-2.258 2.894-4.926 4.113-7.594 4.113-3.566 0-5.691-1.989-5.691-6.188 0-1.18.132-2.535.449-4.07l2.351-12.336h6.504l-2.254 11.84c-.183.992-.316 2.125-.316 2.937 0 1.399.586 2.532 2.21 2.532 2.216 0 4.52-2.668 5.333-7.051l1.945-10.258zM42.156 49.555l2.801-14.918c.543-2.793.91-5.188 1.176-7.18h5.742l-.406 3.66h.086c2.082-2.844 4.84-4.156 7.726-4.156 3.617 0 5.696 2.215 5.696 6.059 0 .984-.18 2.617-.36 3.699l-2.441 12.836h-6.508l2.305-12.246c.136-.77.226-1.633.226-2.442 0-1.582-.543-2.66-2.215-2.66-2.125 0-4.562 2.66-5.507 7.54l-1.809 9.808zM74.508 27.457l.047 9.398c.047 2.485-.043 4.567-.18 7.008h.09c.765-2.355 1.765-4.566 2.668-6.785l4.383-9.621H86.8l.543 9.305c.136 2.62.226 4.746.09 7.101h.136c.723-2.441 1.493-4.61 2.39-7.187l3.798-9.219h6.555L89.559 49.555H83.46l-.637-7.688c-.18-2.297-.18-4.422-.18-7.043h-.136c-1.172 3.117-1.672 4.746-2.617 6.735l-3.754 7.996h-6.098l-2.082-22.098zM98.004 49.555l4.207-22.098h6.457l-4.156 22.098zM108.625 49.555l2.8-14.918c.54-2.793.903-5.188 1.177-7.18h5.738l-.406 3.66h.09c2.078-2.844 4.831-4.156 7.726-4.156 3.613 0 5.695 2.215 5.695 6.059-.004.984-.183 2.617-.363 3.699l-2.441 12.836h-6.508l2.305-12.246c.136-.77.23-1.633.23-2.442 0-1.582-.547-2.66-2.219-2.66-2.125 0-4.562 2.66-5.511 7.54l-1.805 9.808z" style="stroke:none;fill-rule:nonzero;fill:#f14a1c;fill-opacity:1"/><g clip-path="url(#a)"><path d="M134.152 52.629c1.223.723 3.887 1.223 5.786 1.223 3.25 0 5.648-1.45 6.597-5.88l.36-1.898h-.086c-1.72 2.262-3.707 3.301-6.329 3.301-4.386 0-7.05-3.574-7.093-7.91-.051-7.274 5.199-14.504 14.82-14.504 3.117 0 5.824.586 8.176 1.535l-3.344 18.211c-.766 4.07-2.031 7.684-4.652 9.809-2.399 1.902-5.606 2.484-8.54 2.484-2.984 0-5.695-.54-7.23-1.398Zm15.184-20.285c-.496-.23-1.45-.41-2.348-.41-3.933 0-6.734 4.382-6.734 8.539 0 2.257.996 3.886 2.98 3.886 2.125 0 4.25-2.398 4.973-6.101z" style="stroke:none;fill-rule:nonzero;fill:#f14a1c;fill-opacity:1"/></g></svg>
